icon-themes/sifr_svg/cmd/sc_insertexternaldatasource.svg

<svg viewBox="0 0 16 16" xmlns="http://www.w3.org/2000/svg"><path d="m8 0a7 4 0 0 0 -7 4v8a7 4 0 0 0 7 4 7 4 0 0 0 7-4v-4-4a7 4 0 0 0 -7-4zm0 2a5 2 0 0 1 5 2 5 2 0 0 1 -5 2 5 2 0 0 1 -5-2 5 2 0 0 1 5-2zm-5 4.8a7 4 0 0 0 5 1.2 7 4 0 0 0 5-1.2v1.2a5 2 0 0 1 -5 2 5 2 0 0 1 -5-2zm0 4a7 4 0 0 0 5 1.2 7 4 0 0 0 5-1.2v1.2a5 2 0 0 1 -5 2 5 2 0 0 1 -5-2z" fill="#555753"/></svg>

<svg xmlns="http://www.w3.org/2000/svg" viewBox="0 0 16 16">
  <path
     style="fill:#555753"
     d="M 8 0 A 7 4 0 0 0 1 4 L 1 12 A 7 4 0 0 0 8 16 A 7 4 0 0 0 15 12 L 15 8 L 15 4 A 7 4 0 0 0 8 0 z M 8 2 A 5 2 0 0 1 13 4 A 5 2 0 0 1 8 6 A 5 2 0 0 1 3 4 A 5 2 0 0 1 8 2 z M 3 6.8 A 7 4 0 0 0 8 8 A 7 4 0 0 0 13 6.8 L 13 8 A 5 2 0 0 1 8 10 A 5 2 0 0 1 3 8 L 3 6.8 z M 3 10.8 A 7 4 0 0 0 8 12 A 7 4 0 0 0 13 10.8 L 13 12 A 5 2 0 0 1 8 14 A 5 2 0 0 1 3 12 L 3 10.8 z "
     />
</svg>
